public/sheesh/icons21.svg

<svg fill="none" height="60" viewBox="0 0 61 60" width="61" xmlns="http://www.w3.org/2000/svg" xmlns:xlink="http://www.w3.org/1999/xlink"><linearGradient id="a"><stop offset="0" stop-color="#34c796"/><stop offset="1" stop-color="#0b7a55"/></linearGradient><linearGradient id="b" gradientUnits="userSpaceOnUse" x1="30.7002" x2="30.7002" xlink:href="#a" y1="0" y2="60"/><linearGradient id="c" gradientUnits="userSpaceOnUse" x1="30.7005" x2="30.7005" xlink:href="#a" y1="16.666" y2="29.3193"/><linearGradient id="d" gradientUnits="userSpaceOnUse" x1="30.7001" x2="30.7001" xlink:href="#a" y1="31.0059" y2="43.3325"/><circle cx="30.7002" cy="30" fill="#151722" r="29" stroke="url(#b)" stroke-width="2"/><path d="m30.7005 16.666c-3.4933 0-6.3333 2.84-6.3333 6.3333 0 3.4267 2.68 6.2 6.1733 6.32.1067-.0133.2134-.0133.2934 0h.0666.0267c3.4133-.12 6.0933-2.8933 6.1067-6.32 0-3.4933-2.84-6.3333-6.3334-6.3333z" fill="url(#c)"/><path d="m37.4735 32.8659c-3.72-2.48-9.7867-2.48-13.5334 0-1.6933 1.1333-2.6266 2.6666-2.6266 4.3066s.9333 3.16 2.6133 4.28c1.8667 1.2534 4.32 1.88 6.7733 1.88 2.4534 0 4.9067-.6266 6.7734-1.88 1.68-1.1333 2.6133-2.6533 2.6133-4.3066-.0133-1.64-.9333-3.16-2.6133-4.28z" fill="url(#d)"/></svg>

<svg width="61" height="60" viewBox="0 0 61 60" fill="none" xmlns="http://www.w3.org/2000/svg">
<circle cx="30.7002" cy="30" r="29" fill="#151722" stroke="url(#paint0_linear_300_14746)" stroke-width="2"/>
<path d="M30.7005 16.666C27.2072 16.666 24.3672 19.506 24.3672 22.9993C24.3672 26.426 27.0472 29.1993 30.5405 29.3193C30.6472 29.306 30.7539 29.306 30.8339 29.3193C30.8605 29.3193 30.8739 29.3193 30.9005 29.3193C30.9139 29.3193 30.9139 29.3193 30.9272 29.3193C34.3405 29.1993 37.0205 26.426 37.0339 22.9993C37.0339 19.506 34.1939 16.666 30.7005 16.666Z" fill="url(#paint1_linear_300_14746)"/>
<path d="M37.4735 32.8659C33.7535 30.3859 27.6868 30.3859 23.9401 32.8659C22.2468 33.9992 21.3135 35.5325 21.3135 37.1725C21.3135 38.8125 22.2468 40.3325 23.9268 41.4525C25.7935 42.7059 28.2468 43.3325 30.7001 43.3325C33.1535 43.3325 35.6068 42.7059 37.4735 41.4525C39.1535 40.3192 40.0868 38.7992 40.0868 37.1459C40.0735 35.5059 39.1535 33.9859 37.4735 32.8659Z" fill="url(#paint2_linear_300_14746)"/>
<defs>
<linearGradient id="paint0_linear_300_14746" x1="30.7002" y1="0" x2="30.7002" y2="60" gradientUnits="userSpaceOnUse">
<stop stop-color="#34C796"/>
<stop offset="1" stop-color="#0B7A55"/>
</linearGradient>
<linearGradient id="paint1_linear_300_14746" x1="30.7005" y1="16.666" x2="30.7005" y2="29.3193" gradientUnits="userSpaceOnUse">
<stop stop-color="#34C796"/>
<stop offset="1" stop-color="#0B7A55"/>
</linearGradient>
<linearGradient id="paint2_linear_300_14746" x1="30.7001" y1="31.0059" x2="30.7001" y2="43.3325" gradientUnits="userSpaceOnUse">
<stop stop-color="#34C796"/>
<stop offset="1" stop-color="#0B7A55"/>
</linearGradient>
</defs>
</svg>
